X:1
T:Willie Brook
B:Ruth Ann Musick, "Ballads and Songs from West Virginia," The Journal of American Folklore, Vol. 70, No. 278 (Oct.-Dec., 1957), 336-357.
F:http://www.folkinfo.org/songs
M:2/4
L:1/8
K:G
G2 DE |G DE | G3/A/ GE| D3
w:Hark, my young friends, 'tis a mel-an-chol-y sound,
B  | d2 ED | B2 DD | (G3/A/) BG | HA2
w: The ar-rows of death fly-ing swift*-ly a-round;
Bc | D2 ED | B2 DD | (G3/A/) BG | A3
w:There is one of your num-ber, a youth_ in this bloom,
A  | A3/A/ AA |(Ac) BA | G2 EE | D3 z |] 
w:Was called a-way by death,* Now lies cold in the tomb.